X:187
T:Atholl Highlanders
M:6/8
L:1/8
K:A
cd | "A"e3 ecA | ecA "E7"Bcd | "A"e3 ecA | "E7"Bcd c2B | "A"e3 ecA | ecA "E7"Bcd | "A"eae "D"fed | "E7"cdB "A"A :|
|: cB | "A"Ace Ace | "D"Adf Adf | "A"Ace Ace | "E7"Bcd c2B | "A"Ace Ace | "D"Adf Adf | "A"eae "D"fed | "E7"cdB "A"A :|
|: eg | "A"aee edc | "A"aee edc | "A"aee edc | "E7"Bcd c2B | "A"aee edc | "A"aee edc | "A"aee "D"fed | "E7"cdB "A"A :|
|: AB | "A"cAc cAc | "D"dBd dBd | "A"cAc cAc | "G"B=GB BGB | "A"cAc cAc | "D"dBd d2f | "A"eae "D"fed | "E7"cdB "A"A :|

%%newpage

